img/svg/family.svg

<?xml version="1.0" encoding="utf-8"?><!DOCTYPE svg PUBLIC "-//W3C//DTD SVG 1.1//EN" "http://www.w3.org/Graphics/SVG/1.1/DTD/svg11.dtd"><svg version="1.1" baseProfile="full" xmlns="http://www.w3.org/2000/svg" xmlns:xlink="http://www.w3.org/1999/xlink" xmlns:ev="http://www.w3.org/2001/xml-events"   height="30px"   width="34px" ><path fill="rgb( 48, 171, 223 )" d="M9.45999999999998,2.55499999999995 C9.45999999999998,3.96000000000004 8.34500000000003,5.10000000000002 6.97399999999999,5.10000000000002 C5.601,5.10000000000002 4.488,3.96000000000004 4.488,2.55499999999995 C4.488,1.149 5.59899999999999,0.00699999999995 6.97399999999999,0.00699999999995 C8.34500000000003,0.00699999999995 9.45999999999998,1.14700000000005 9.45999999999998,2.55499999999995 ZM7.23500000000001,19.999 C7.23500000000001,19.999 7.77199999999999,29.403 7.77199999999999,29.403 C7.77199999999999,29.729 8.03100000000001,30 8.35199999999998,30 C8.67500000000001,30 8.93599999999998,29.729 8.93599999999998,29.403 C8.93599999999998,29.403 9.43200000000002,19.999 9.43200000000002,19.999 C9.43200000000002,19.999 11.052,19.999 11.052,19.999 C11.052,19.999 9.37799999999999,9.46100000000001 9.37799999999999,9.46100000000001 C9.37799999999999,9.46100000000001 12.749,16.353 12.749,16.353 C12.872,16.6559999999999 13.213,16.801 13.511,16.674 C13.807,16.543 13.947,16.1950000000001 13.822,15.8869999999999 C13.822,15.8869999999999 11.352,9.02999999999997 10.741,7.75199999999995 C10.13,6.47299999999996 9.529,5.69500000000005 7.21100000000001,5.69500000000005 C7.21100000000001,5.69500000000005 6.73700000000002,5.69500000000005 6.73700000000002,5.69500000000005 C4.42399999999998,5.69500000000005 3.81799999999998,6.471 3.21100000000001,7.75199999999995 C2.60199999999998,9.02999999999997 0.12900000000002,15.8869999999999 0.12900000000002,15.8869999999999 C0,16.1950000000001 0.13999999999999,16.543 0.43400000000003,16.674 C0.73099999999999,16.801 1.072,16.6559999999999 1.20100000000002,16.353 C1.20100000000002,16.353 4.57100000000003,9.46100000000001 4.57100000000003,9.46100000000001 C4.57100000000003,9.46100000000001 2.89499999999998,19.999 2.89499999999998,19.999 C2.89499999999998,19.999 4.512,19.999 4.512,19.999 C4.512,19.999 5.01499999999999,29.403 5.01499999999999,29.403 C5.01499999999999,29.729 5.27699999999999,30 5.59500000000003,30 C5.92399999999998,30 6.18400000000003,29.729 6.18400000000003,29.403 C6.18400000000003,29.403 6.68400000000003,19.999 6.68400000000003,19.999 C6.68400000000003,19.999 7.23500000000001,19.999 7.23500000000001,19.999 ZM27.025,0 C25.655,0 24.538,1.13999999999999 24.538,2.548 C24.538,3.95600000000002 25.653,5.096 27.025,5.096 C28.393,5.096 29.506,3.95600000000002 29.506,2.548 C29.506,1.13999999999999 28.395,0 27.025,0 ZM29.601,14.996 C29.601,14.996 29.766,9.45399999999995 29.766,9.45399999999995 C29.766,9.45399999999995 32.797,16.349 32.797,16.349 C32.925,16.649 33.266,16.797 33.561,16.665 C33.863,16.534 34,16.186 33.877,15.878 C33.877,15.878 31.742,9.02099999999996 31.132,7.74400000000003 C30.519,6.46600000000001 29.578,5.69100000000003 27.263,5.69100000000003 C27.263,5.69100000000003 26.787,5.69100000000003 26.787,5.69100000000003 C24.474,5.69100000000003 23.531,6.46600000000001 22.918,7.74400000000003 C22.31,9.02099999999996 20.178,15.878 20.178,15.878 C20.05,16.186 20.189,16.534 20.486,16.665 C20.784,16.797 21.127,16.649 21.246,16.349 C21.246,16.349 24.284,9.45399999999995 24.284,9.45399999999995 C24.284,9.45399999999995 24.447,14.996 24.447,14.996 C24.447,14.996 23.969,28.928 23.969,28.928 C23.936,29.48 24.339,29.9589999999999 24.87,29.995 C24.899,30 24.923,30 24.941,30 C25.452,30 25.879,29.597 25.921,29.068 C25.921,29.068 27.021,17.597 27.021,17.597 C27.021,17.597 28.131,29.068 28.131,29.068 C28.164,29.602 28.594,30 29.1,30 C29.124,30 29.147,30 29.171,29.995 C29.708,29.9589999999999 30.109,29.48 30.074,28.928 C30.074,28.928 29.594,14.996 29.594,14.996 C29.594,14.996 29.601,14.996 29.601,14.996 ZM16.999,15.489 C16.155,15.489 15.471,16.186 15.471,17.05 C15.471,17.914 16.155,18.61 16.999,18.61 C17.84,18.61 18.523,17.914 18.523,17.05 C18.523,16.186 17.84,15.489 16.999,15.489 ZM16.999,24.694 C16.999,24.694 17.685,29.5839999999999 17.685,29.588 C17.78,29.828 17.998,30 18.266,30 C18.539,30 18.768,29.8150000000001 18.852,29.559 C18.856,29.543 18.871,29.254 18.856,29.208 C18.856,29.208 18.574,23.199 18.574,23.199 C18.574,23.199 18.662,21.134 18.662,21.134 C18.742,20.433 18.759,20.646 19.534,20.1660000000001 C20.332,19.678 21.678,17.529 21.742,17.425 C21.808,17.317 21.931,17.129 21.953,17.009 C21.993,16.792 21.857,16.588 21.649,16.543 C21.491,16.516 21.354,16.602 21.253,16.715 C21.149,16.83 19.596,18.954 18.431,19.158 C18.169,19.117 17.888,18.977 17.145,18.977 C17.145,18.977 16.852,18.977 16.852,18.977 C16.114,18.977 15.832,19.121 15.569,19.158 C14.402,18.954 12.848,16.83 12.739,16.715 C12.64,16.602 12.511,16.516 12.349,16.543 C12.142,16.588 12.002,16.792 12.045,17.009 C12.067,17.129 12.19,17.317 12.257,17.425 C12.324,17.529 13.676,19.678 14.465,20.1660000000001 C15.244,20.646 15.262,20.433 15.337,21.134 C15.337,21.134 15.424,23.199 15.424,23.199 C15.424,23.199 15.144,29.208 15.144,29.208 C15.128,29.258 15.144,29.547 15.156,29.559 C15.236,29.8150000000001 15.462,30 15.737,30 C16,30 16.226,29.828 16.313,29.588 C16.31,29.5839999999999 16.999,24.694 16.999,24.694  "/></svg>

<svg baseProfile="full" xmlns="http://www.w3.org/2000/svg" height="30" width="34"><path fill="rgb( 48, 171, 223 )" d="M9.46 2.555c0 1.405-1.115 2.545-2.486 2.545-1.373 0-2.486-1.14-2.486-2.545 0-1.406 1.111-2.548 2.486-2.548 1.371 0 2.486 1.14 2.486 2.548zm-2.225 17.444l.537 9.404c0 .326.259.597.58.597.323 0 .584-.271.584-.597l.496-9.404h1.62l-1.674-10.538 3.371 6.892c.123.303.464.448.762.321.296-.131.436-.479.311-.787 0 0-2.47-6.857-3.081-8.135-.611-1.279-1.212-2.057-3.53-2.057h-.474c-2.313 0-2.919.776-3.526 2.057-.609 1.278-3.082 8.135-3.082 8.135-.129.308.011.656.305.787.297.127.638-.018.767-.321l3.37-6.892-1.676 10.538h1.617l.503 9.404c0 .326.262.597.58.597.329 0 .589-.271.589-.597l.5-9.404h.551zm19.79-19.999c-1.37 0-2.487 1.14-2.487 2.548 0 1.408 1.115 2.548 2.487 2.548 1.368 0 2.481-1.14 2.481-2.548 0-1.408-1.111-2.548-2.481-2.548zm2.576 14.996l.165-5.542 3.031 6.895c.128.3.469.448.764.316.302-.131.439-.479.316-.787 0 0-2.135-6.857-2.745-8.134-.613-1.278-1.554-2.053-3.869-2.053h-.476c-2.313 0-3.256.775-3.869 2.053-.608 1.277-2.74 8.134-2.74 8.134-.128.308.011.656.308.787.298.132.641-.016.76-.316l3.038-6.895.163 5.542-.478 13.932c-.033.552.37 1.031.901 1.067l.071.005c.511 0 .938-.403.98-.932l1.1-11.471 1.11 11.471c.033.534.463.932.969.932l.071-.005c.537-.036.938-.515.903-1.067l-.48-13.932h.007zm-12.602.493c-.844 0-1.528.697-1.528 1.561s.684 1.56 1.528 1.56c.841 0 1.524-.696 1.524-1.56 0-.864-.683-1.561-1.524-1.561zm0 9.205l.686 4.894c.095.24.313.412.581.412.273 0 .502-.185.586-.441.004-.016.019-.305.004-.351l-.282-6.009.088-2.065c.08-.701.097-.488.872-.968.798-.488 2.144-2.637 2.208-2.741.066-.108.189-.296.211-.416.04-.217-.096-.421-.304-.466-.158-.027-.295.059-.396.172-.104.115-1.657 2.239-2.822 2.443-.262-.041-.543-.181-1.286-.181h-.293c-.738 0-1.02.144-1.283.181-1.167-.204-2.721-2.328-2.83-2.443-.099-.113-.228-.199-.39-.172-.207.045-.347.249-.304.466.022.12.145.308.212.416.067.104 1.419 2.253 2.208 2.741.779.48.797.267.872.968l.087 2.065-.28 6.009c-.016.05 0 .339.012.351.08.256.306.441.581.441.263 0 .489-.172.576-.412-.003-.004.686-4.894.686-4.894"/></svg>
